X:1
T:Fonti del mio dolor
T:Stefano Landi
T:Source : Arie---Quinto libro---Venetia---B.Magni---1637. Editor : André Vierendeels (09/02/17).
T:Notes : Original clefs : C1, F4 Figures in BC are notated in original print "Littere per la chitarra" : continuo proposed by the editor Poesia dell'Illustr. Sign. D.Virginio Cesarini
T:Fonti del mio dolor
T:©
T:©
C:Stefano Landi
Z:©
%%score 1 { ( 2 3 ) | 4 }
L:1/8
Q:1/4=99
M:4/4
K:C
V:1 treble nm="Soprano" snm="S"
V:2 treble nm="MusicXML Part"
V:3 treble 
V:4 bass 
V:1
 z4 D4 | E3 E F2 G2 | A2 c3 _B A2 | _BABc A2 B2 | G2 A2 F2 G2 | A6 ^c2 | d3 d e3 e | A2 d3 c _BA | %8
w: Fon-|ti del mio do-|lor, oc- chi lu-|cen- * * * ti ond'|A- mor mi fe-|ri per-|che vi- bra- te'a|me dar- di pun- *|
w: Chio-|me de miei pen-|sier dol- ce ca-|te- * * * na che|l'al- ma mi le-|go per-|che cer- ca- re|ri- no- var mi- a|
w: Lam-|pi leg- gia- dri|di so- a- vi|ri- * * * so non|ri- splen- de- te|piu quan-|do vo sol go-|ra- ste nel bel _|
w: Co-|si lan- guis- co'in|tor- men- to- so'a-|do- * * * ren fer-|mo- di gran bel-|tà de-|no- ro'il mio sen|fat- to'è Ti- ran- *|
 _BABc A3 c | _B2 A2 A3 G | A4 e3 d | c2 A2 A2 ^G2 | A2 E2 G3 F | E3 F G3 F | E2 C2 A3 G | %15
w: gen- * * * ti se|gia'l mio cor pe-|ri, non ho|cor piu dentr' al|pet- to che di|duol sol' e ri-|cet- to nelfis- sar-|
w: pe- * * * na se|li- ber- tà non|ho, raf- fre-|na'e chi fu- ga-|ce non pro- vo|no- do te- na-|ce chi dis- sciol-|
w: lan- * * * gui la|mia vir- tu voi|del mar' la-|cal me se- te|che pro- cel- le|na- scon- de- te|ri- de'il ma- re|
w: noA- * * * mo- *|re per dar- mi|pe- na sia|chi d'a- mor non|pro- vo l'i- re|hor- ri- mi- ri|el mio lan- *|
 F2 D2 A3 G | F2 D2 A3 G | F2 GF E3 D | !fermata!D8 |] %19
w: mi con- tro l'ar-|mi vo- str'ar- den-|t'in- * * ce- ne-|ri.|
w: to di quel vol-|to i bei rai|non a- * do- *|ro.|
w: ma to- na- re|sa quan- do'Au _|stro il _ mo- *|ve'in.|
w: gui- re pren- da'e-|sem- pio chi tri-|bu- to'à lui non- *|dà.|
V:2
 A4 A4 | A4 d4 | c6 d2- | d2 _B2 A2 B2 | G2 A2 F2 G2 | ^c4 A4 | d4 A4- | A4 c4 | _B4 c4 | %9
 d2 c2 d4- | d4 ^c2 A2- | A2 B2 A2 cB | ^c4 d4 | c4 d4 | c4 A2 ^c2 | A8 | A4 c4 | F2 G2 d2 ^c2 | %18
 A8 |] %19
V:3
 F4 F4 | E4 A2 G2 | E4 A4 | F2 E2 F4 | E4 D4 | E6 E2 | G4 E4 | F2 D2 A4 | G2 E2 A4 | D2 F2 D4 | %10
 F4 A2 F2 | E2 D2 F2 E2 | E4 G2 B2 | G3 A B4 | G4 E4 | F4 E4 | F4 E4 | D4 E4 | !fermata!^F8 |] %19
V:4
"^BC" D,4 D4- |"^2" D2 ^C2 D2 _B,2 |"^5 6""^-natural3""^5 6" A,3 G, F,4 |"^7 6" G,4 D,2 D2- | %4
"^2""^2" D2 C2 C2 _B,2 |"^5""^6" A,6 A,2 | B,4 ^C4 |"^-natural3" D3 E F2 F2- |"^2" F2 E2 F2 F,2 | %9
"^6" G,2 A,2 _B,4 |"^4" A,4 ^C2 D2 |"^9""^6" A,2 F,2 D,2 E,2 |"^#3" A,4 B,2 G,2 | C2 A,2 B,2 G,2 | %14
"^#3" C3 C, C2 A,2 | D3 D, ^C2 A,2 | D3 D, C2 A,2 | _B,2 G,2 A,4 | !fermata!D,8 |] %19

